Origami/24x24/apps/mattermost.svg

<svg width="24" height="24" version="1.1" viewBox="0 0 24 24" xmlns="http://www.w3.org/2000/svg">
 <circle cx="12" cy="12.5" r="10" style="opacity:.2"/>
 <circle cx="12" cy="12" r="10" style="fill:#248afd"/>
 <path d="m12 2a10 10 0 0 0 -10 10 10 10 0 0 0 0.0098 0.293 10 10 0 0 1 9.9902 -9.793 10 10 0 0 1 9.99 9.707 10 10 0 0 0 0.01 -0.207 10 10 0 0 0 -10 -10z" style="fill:#ffffff;opacity:.2"/>
 <path d="m11.841797 5.5078125a7 7 0 0 0 -6.841797 6.9921875 7 7 0 0 0 7 7 7 7 0 0 0 7 -7 7 7 0 0 0 -3.013672 -5.7324219v1.7304688a5 5 0 0 1 1.013672 3.0019531 5 5 0 0 1 -5 5 5 5 0 0 1 -5 -5 5 5 0 0 1 3.908203 -4.8730469c0.286067-0.3408095 0.640306-0.7670403 0.789063-0.9492187 0.04987-0.061074 0.09636-0.1130355 0.144531-0.1699219zm1.798828 1.0019531c-0.03697 0.016353-0.213816 0.2122762-0.394531 0.4335938-0.180714 0.2213171-0.575346 0.6943891-0.876953 1.0527344-0.301607 0.3583451-0.874369 1.0443141-1.271485 1.5234374-0.780165 0.9412708-0.904685 1.1310648-1.033203 1.5781248-0.080264 0.279217-0.087327 0.730245-0.01563 0.992188 0.196567 0.718088 0.853792 1.256244 1.701172 1.394531 0.03852 0.0063 0.171683 0.01393 0.294922 0.01563 0.513461 0.0074 0.950159-0.16604 1.320312-0.525391 0.195086-0.189393 0.249224-0.263897 0.369141-0.505859 0.07727-0.1559 0.16115-0.363727 0.1875-0.460938 0.0676-0.249337 0.09961-0.764496 0.06445-1.943359v-3.4335936c-0.018407-0.0927943-0.262255-0.1580078-0.345695-0.1210988z" style="opacity:.2"/>
 <path d="m11.841797 5.0078125a7 7 0 0 0 -6.841797 6.9921875 7 7 0 0 0 7 7 7 7 0 0 0 7 -7 7 7 0 0 0 -3.013672 -5.7324219v1.7304688a5 5 0 0 1 1.013672 3.0019531 5 5 0 0 1 -5 5 5 5 0 0 1 -5 -5 5 5 0 0 1 3.908203 -4.8730469c0.286067-0.3408095 0.640306-0.7670403 0.789063-0.9492187 0.049869-0.0610742 0.096357-0.1130355 0.144531-0.1699219zm1.798828 1.0019531c-0.03697 0.016353-0.213816 0.2122762-0.394531 0.4335938-0.180714 0.2213171-0.575346 0.6943891-0.876953 1.0527344-0.301607 0.3583451-0.874369 1.0443141-1.271485 1.5234374-0.780165 0.9412705-0.904685 1.1310648-1.033203 1.5781248-0.0802639 0.279217-0.0873269 0.730245-0.015625 0.992188 0.196567 0.718088 0.853792 1.256244 1.701172 1.394531 0.03852 0.0063 0.171683 0.013925 0.294922 0.015625 0.513461 0.0074 0.950159-0.16604 1.320312-0.525391 0.195086-0.189393 0.249224-0.263897 0.369141-0.505859 0.07727-0.1559 0.16115-0.363727 0.1875-0.460938 0.0676-0.249337 0.099613-0.764496 0.064453-1.9433589v-3.4335937c-0.018415-0.0927893-0.262263-0.1580028-0.345703-0.1210938z" style="fill:#ffffff"/>
</svg>

<svg xmlns="http://www.w3.org/2000/svg" width="24" height="24" version="1.1" viewBox="0 0 24 24">
 <circle style="opacity:.2" cx="12" cy="12.5" r="10"/>
 <circle style="fill:#248afd" cx="12" cy="12" r="10"/>
 <path style="opacity:.2;fill:#ffffff" d="m12 2a10 10 0 0 0 -10 10 10 10 0 0 0 0.0098 0.293 10 10 0 0 1 9.9902 -9.793 10 10 0 0 1 9.99 9.707 10 10 0 0 0 0.01 -0.207 10 10 0 0 0 -10 -10z"/>
 <path d="M 11.841797,5.5078125 A 7,7 0 0 0 5,12.5 a 7,7 0 0 0 7,7 7,7 0 0 0 7,-7 7,7 0 0 0 -3.013672,-5.7324219 l 0,1.7304688 A 5,5 0 0 1 17,11.5 a 5,5 0 0 1 -5,5 5,5 0 0 1 -5,-5 5,5 0 0 1 3.908203,-4.8730469 c 0.286067,-0.3408095 0.640306,-0.7670403 0.789063,-0.9492187 0.04987,-0.061074 0.09636,-0.1130355 0.144531,-0.1699219 z m 1.798828,1.0019531 c -0.03697,0.016353 -0.213816,0.2122762 -0.394531,0.4335938 -0.180714,0.2213171 -0.575346,0.6943891 -0.876953,1.0527344 -0.301607,0.3583451 -0.874369,1.0443141 -1.271485,1.5234374 -0.780165,0.9412708 -0.904685,1.1310648 -1.033203,1.5781248 -0.080264,0.279217 -0.087327,0.730245 -0.01563,0.992188 0.196567,0.718088 0.853792,1.256244 1.701172,1.394531 0.03852,0.0063 0.171683,0.01393 0.294922,0.01563 0.513461,0.0074 0.950159,-0.16604 1.320312,-0.525391 0.195086,-0.189393 0.249224,-0.263897 0.369141,-0.505859 0.07727,-0.1559 0.16115,-0.363727 0.1875,-0.460938 0.0676,-0.249337 0.09961,-0.764496 0.06445,-1.943359 l 0,-3.4335936 C 13.967913,6.5380701 13.724065,6.4728566 13.640625,6.5097656 Z" style="opacity:0.2"/>
 <path style="fill:#ffffff" d="M 11.841797 5.0078125 A 7 7 0 0 0 5 12 A 7 7 0 0 0 12 19 A 7 7 0 0 0 19 12 A 7 7 0 0 0 15.986328 6.2675781 L 15.986328 7.9980469 A 5 5 0 0 1 17 11 A 5 5 0 0 1 12 16 A 5 5 0 0 1 7 11 A 5 5 0 0 1 10.908203 6.1269531 C 11.19427 5.7861436 11.548509 5.3599128 11.697266 5.1777344 C 11.747135 5.1166602 11.793623 5.0646989 11.841797 5.0078125 z M 13.640625 6.0097656 C 13.603655 6.0261186 13.426809 6.2220418 13.246094 6.4433594 C 13.06538 6.6646765 12.670748 7.1377485 12.369141 7.4960938 C 12.067534 7.8544389 11.494772 8.5404079 11.097656 9.0195312 C 10.317491 9.9608017 10.192971 10.150596 10.064453 10.597656 C 9.9841891 10.876873 9.9771261 11.327901 10.048828 11.589844 C 10.245395 12.307932 10.90262 12.846088 11.75 12.984375 C 11.78852 12.990675 11.921683 12.9983 12.044922 13 C 12.558383 13.0074 12.995081 12.83396 13.365234 12.474609 C 13.56032 12.285216 13.614458 12.210712 13.734375 11.96875 C 13.811645 11.81285 13.895525 11.605023 13.921875 11.507812 C 13.989475 11.258475 14.021488 10.743316 13.986328 9.5644531 L 13.986328 6.1308594 C 13.967913 6.0380701 13.724065 5.9728566 13.640625 6.0097656 z"/>
</svg>
